X: 1401
T: Mâhur Peşrev
C: Rauf Yektâ
O: Turkey
F: http://compmusic.upf.edu/node/140
N: mahur--pesrev--hafif----rauf_yekta
N: makam= mahur
N: form= pesrev
N: usul= hafif = 32/4
M: 32/4
L: 1/16
K: C ^9/8f   
Q: 1/4=78
%%MIDI tuningsystem comma53
f4 g4 z2 a2 g2 f2  | g4 a2 b2 a4 g4  | \
w:  1. HANE  |   | 
g f e2 f2 g2 ^f3 e d4  | e2 f2 g2 a2 f4 g4  | 
w:   |   | 
g4 a4 a g a b a2 g2  | f3 e f2 g2 f3 e d2 e2  | \
w:   |   | 
d4 a2 b2 a3 g f2 g2  | 
w:   | 
f2 g2 a b a g g8  | g2 f e d2 g2 g6 c'2  | \
w:   |  TESLİM  | 
c'2 b2 b2 a2 a2 g2 g2 a2  | 
w:   | 
g2 f2 e2 d2 e2 f2 g2 a2  | f4 g4 g a g f g4  | \
w:   |   | 
z2 d4 a2 g2 =f2 e2 d2  | 
w:   | 
d2 c2 c2 B2 _1/4B3 A G4  | z2 A B c2 d2 B2 A2 G2 F2  | \
w:   |   | 
G6 B2 c8  | z2 c4 e2 d3 c B4  | 
w:  2. HANEYE  |   | 
z2 B A B2 d2 c3 _1/4B A4  | z2 A G A2 c2 _1/4B3 A G4  | \
w:   |   | 
z2 G4 d2 e8  | z2 e4 a2 e6 d2  | 
w:   |   | 
d2 c2 c2 _1/4B2 B2 A2 A2 _7/8B2  | \
w:   | 
d ^c _7/8B A G4 z2 A =c _1/4B2 A2  | \
w:   | 
G3 F E2 F2 G8  | 
w:   | 
g2 f e d2 g2 g6 c'2  | c'2 b2 b2 a2 a2 g2 g2 a2  | \
w:  TESLİM  |   | 
g2 f2 e2 d2 e2 f2 g2 a2  | 
w:   | 
f4 g4 g a g f g4  | z2 d4 a2 g2 =f2 e2 d2  | \
w:   |   | 
d2 c2 c2 B2 _1/4B3 A G4  | 
w:   | 
z2 A B c2 d2 B2 A2 G2 F2  | G6 B2 c8  | \
w:   |  3. HANEYE  | 
z4 c2 d2 d2 a2 g2 =f2  | =f2 e2 e2 d2 c3 _1/4B A4  | 
w:   |   | 
^f4 g4 g2 f2 g2 a2  | c' _1/4b a2 g2 ^f2 ^2/4f2 e4 d2  | \
w:   |   | 
e2 d2 c2 _1/4B2 g2 ^f2 g2 a2  | 
w:   | 
a g f4 d2 e2 =f2 e2 d2  | ^3/4c4 d8 e d e2  | \
w:   |   | 
d2 e2 f2 g2 e2 f2 g4  | g2 f e d2 g2 g6 c'2  | 
w:   |  TESLİM  | 
c'2 b2 b2 a2 a2 g2 g2 a2  | g2 f2 e2 d2 e2 f2 g2 a2  | \
w:   |   | 
f4 g4 g a g f g4  | 
w:   | 
z2 d4 a2 g2 =f2 e2 d2  | d2 c2 c2 B2 _1/4B3 A G4  | \
w:   |   | 
z2 A B c2 d2 B2 A2 G2 F2  | 
w:   | 
G6 c2 d8  | z2 G4 A2 B6 G2  | z2 c4 B2 d8  | \
w:  4. HANEYE  |   |   | 
z2 c4 B2 A6 G2  | G2 F4 E D {E}D8  | 
w:   |   | 
G4 B4 d6 c B  | c4 ^c4 d8  | d4 e4 f6 d2  | \
w:   |   |   | 
e4 =f2 ^9/8f2 g8  | g2 f e d2 g2 g6 c'2  | 
w:   |  TESLİM  | 
c'2 b2 b2 a2 a2 g2 g2 a2  | g2 f2 e2 d2 e2 f2 g2 a2  | \
w:   |   | 
f4 g4 g a g f g4  | 
w:   | 
z2 d4 a2 g2 =f2 e2 d2  | d2 c2 c2 B2 _1/4B3 A G4  | \
w:   |   | 
z2 A B c2 d2 B2 A2 G2 F2  | 
w:   | 
G6 D2 E2 F2 G4  | |


